packages/ffe-icons/icons/filled/md/location_chip.svg

<svg xmlns="http://www.w3.org/2000/svg" height="24" viewBox="0 -960 960 960" width="24"><path d="M320-220.001q-108.642 0-184.32-75.657-75.679-75.657-75.679-184.268 0-108.612 75.679-184.342 75.678-75.731 184.32-75.731h320q108.642 0 184.32 75.657 75.679 75.657 75.679 184.268 0 108.612-75.679 184.342-75.678 75.731-184.32 75.731H320ZM360.001-510q0 57.154 37.923 100.538 37.922 43.384 82.076 80.231 44.154-36.847 82.076-80.231Q599.999-452.846 599.999-510q0-49.846-35.061-84.923-35.06-35.076-84.884-35.076-49.823 0-84.938 35.076-35.115 35.077-35.115 84.923ZM480-480q-17 0-28.5-11.5T440-520q0-17 11.5-28.5T480-560q17 0 28.5 11.5T520-520q0 17-11.5 28.5T480-480Z"/></svg>

<svg xmlns="http://www.w3.org/2000/svg" height="24" viewBox="0 -960 960 960" width="24"><path d="M320-220q-108.64 0-184.32-75.66Q60-371.31 60-479.93q0-108.61 75.68-184.34T320-740h320q108.64 0 184.32 75.66Q900-588.69 900-480.07q0 108.61-75.68 184.34T640-220H320Zm40-290q0 57.15 37.92 100.54 37.93 43.38 82.08 80.23 44.15-36.85 82.08-80.23Q600-452.85 600-510q0-49.85-35.06-84.92Q529.88-630 480.05-630q-49.82 0-84.93 35.08Q360-559.85 360-510Zm120 30q-17 0-28.5-11.5T440-520q0-17 11.5-28.5T480-560q17 0 28.5 11.5T520-520q0 17-11.5 28.5T480-480Z"/></svg>
